X:1
T:Honourable Mr. Ramsay Maule's Strathspey
T:Honourable Mr. Ramsay Maule's Strathspey
T:Niel Gow  (1727-1807)
C:Niel Gow  (1727-1807)
L:1/8
M:4/4
K:Emin
V:1 treble 
V:1
 e | B<ETB>A FDDd | B<ETB>A B<ETB>A | B<dA<d FDDd | B<ETB>A GEEe | B<ETB>A FDDd | B<FTB>A B<de<g | %7
 d>B AG FDDd | B<ETB>A GEE || g | eBeg dDTA>F | eBeg eBeg | e>f{ef} ge dDFA | B<ETB>A GEEg | %14
 eBeg dD{B} AG/F/ | eBeg Be/f/ ge | dfBd FD{B} AG/F/ | B<ETB>A GEE || %18

